Square/Danske Bank.svg

<?xml version="1.0" encoding="UTF-8"?>
<svg width="32px" height="32px" viewBox="0 0 32 32" version="1.1" xmlns="http://www.w3.org/2000/svg" xmlns:xlink="http://www.w3.org/1999/xlink">
    <!-- Generator: Sketch 52.3 (67297) - http://www.bohemiancoding.com/sketch -->
    <title>Square/Danske Bank</title>
    <desc>Created with Sketch.</desc>
    <g id="Square/Danske-Bank" stroke="none" stroke-width="1" fill="none" fill-rule="evenodd">
        <g id="Danske-Bank" fill="#03426A">
            <path d="M0,20.1900849 L0,1.20792265e-13 L32,1.20792265e-13 L32,20.1900849 L0,20.1900849 Z M7.35638009,15.1617128 C7.35638009,16.0514629 6.91040724,16.4909126 5.9120362,16.4909126 L4.34099548,16.4909126 L4.34099548,13.1597752 L5.86135747,13.1597752 C7.06751131,13.1597752 7.35638009,13.7891106 7.35638009,14.4781244 L7.35638009,15.1617128 Z M8,15.1345863 L8,14.5649293 C8,12.747452 6.66208145,12.6769231 5.76506787,12.6769231 L3.69230769,12.6769231 L3.69230769,16.9846154 L5.94244344,16.9846154 C7.71113122,16.9846154 8,15.9592327 8,15.1345863 Z M11.6853933,15.8242687 C11.6853933,16.0859155 11.66465,16.3248104 11.3898012,16.4328819 C11.2290406,16.5011376 11.0008643,16.5238895 10.6171132,16.5238895 C10.2333621,16.5238895 10.0051858,16.4840737 9.87035436,16.3873781 C9.77700951,16.3248104 9.74070873,16.2224269 9.74070873,16.0062839 C9.74070873,15.7332611 9.80293863,15.5796858 9.92221262,15.5171181 C10.0414866,15.4545504 10.1918755,15.4431744 10.6585998,15.4431744 L11.6853933,15.4431744 L11.6853933,15.8242687 Z M12.3076923,16.9391116 L12.3076923,15.1644637 C12.3076923,14.8288732 12.3076923,14.5956663 12.2817632,14.4250271 C12.2506482,14.2486999 12.19879,14.1235645 12.0691443,14.015493 C11.7683665,13.7595341 11.0319793,13.7538462 10.6689715,13.7538462 C10.3941227,13.7538462 9.64736387,13.787974 9.37251513,14.0439328 C9.27917027,14.1292524 9.25842697,14.231636 9.25842697,14.3567714 C9.25842697,14.436403 9.26879862,14.5444745 9.27398444,14.6866739 L9.88072602,14.6866739 C9.89109767,14.6070423 9.90665514,14.4136511 9.97407087,14.3340195 C10.0570441,14.2486999 10.1970614,14.214572 10.6119274,14.214572 C11.0890233,14.214572 11.4209162,14.231636 11.5609334,14.3169556 C11.6905791,14.3965872 11.6853933,14.5672264 11.6853933,14.6980498 L11.6853933,15.0052004 L10.2852204,15.0052004 C9.90665514,15.0052004 9.47104581,15.0165764 9.23249784,15.3749187 C9.12359551,15.528494 9.07692308,15.7275731 9.07692308,15.983532 C9.07692308,16.7343445 9.49697494,16.9846154 10.5756266,16.9846154 C11.1356958,16.9846154 11.5038894,16.8879198 11.7268799,16.6774648 L11.7839239,16.9391116 L12.3076923,16.9391116 Z M15.979911,16.9846154 L16.6153846,16.9846154 L16.6153846,15.1630115 C16.6153846,14.8021277 16.5993643,14.6589198 16.5673236,14.4927987 C16.5192626,14.2522095 16.3910998,14.0459902 16.1561348,13.9371522 C15.9158296,13.8225859 15.6007629,13.7538462 15.1949142,13.7538462 C14.8371265,13.7538462 14.5701208,13.788216 14.3565162,13.8569558 C14.2230134,13.897054 14.1268913,13.9543372 13.9987285,14.0288052 L13.9560076,13.7996727 L13.3846154,13.7996727 L13.3846154,16.9846154 L14.020089,16.9846154 L14.020089,14.3839607 C14.3511761,14.2865794 14.7036236,14.2407529 15.045391,14.2407529 C15.4352193,14.2407529 15.6915448,14.3037643 15.8197076,14.406874 C15.9532104,14.5157119 15.979911,14.6417349 15.979911,15.2432079 L15.979911,16.9846154 Z M20.5581979,16.7574963 C20.8136132,16.6155468 20.9230769,16.3827498 20.9230769,16.0136812 C20.9230769,15.553765 20.7979756,15.3266459 20.4800096,15.2074084 C20.3027826,15.1392727 20.0994929,15.1108828 19.7867395,15.1052048 C19.4948363,15.0995268 18.6399769,15.1108828 18.4783877,15.0030012 C18.4106244,14.9518994 18.3584989,14.8383399 18.3584989,14.6850345 C18.3584989,14.4579154 18.4314747,14.3443558 18.5930639,14.2818981 C18.7650783,14.2137623 18.9787932,14.1967284 19.3540973,14.1967284 C19.7294014,14.1967284 19.9952418,14.2307963 20.0838552,14.30461 C20.1359808,14.3443558 20.1464059,14.3784237 20.1776813,14.548763 L20.2037441,14.6907125 L20.8084007,14.6907125 C20.8188258,14.5828309 20.8188258,14.5146951 20.8188258,14.4465594 C20.8188258,14.1967284 20.7719128,14.054779 20.6259612,13.9639313 C20.4956472,13.8844396 20.3132078,13.8390158 20.0734301,13.804948 C19.8649278,13.7765581 19.5208991,13.7538462 19.239421,13.7538462 C18.1343589,13.7538462 17.732992,14.0036772 17.732992,14.7191023 C17.732992,15.5083412 18.3897742,15.5367311 19.0100685,15.570799 C19.1508075,15.576477 19.2706963,15.5878329 19.3749475,15.5878329 C19.5938749,15.5935109 19.7294014,15.5935109 19.7711018,15.5991889 C19.8492902,15.6048668 19.922266,15.6048668 19.9952418,15.6219008 C20.2350194,15.6616466 20.2819324,15.7638502 20.2819324,16.0136812 C20.2819324,16.2294444 20.2193817,16.3430039 20.0890678,16.4054617 C19.9066283,16.4963093 19.6303628,16.5417331 19.2342084,16.5417331 C18.9162425,16.5417331 18.6660397,16.5190212 18.509663,16.4679194 C18.3480737,16.4111397 18.3584989,16.331648 18.3376486,16.1840205 C18.3324361,16.1499527 18.3324361,16.0988509 18.3115859,15.9398675 L17.7121418,15.9398675 C17.6965041,16.1102068 17.686079,16.2351223 17.6965041,16.3770718 C17.7121418,16.6496147 17.8580934,16.7972421 18.1499966,16.8710558 C18.4210495,16.9505475 18.7702909,16.9846154 19.192508,16.9846154 C19.8023772,16.9846154 20.2715073,16.9164797 20.5581979,16.7574963 Z M24.3858806,16.9846154 L25.2307692,16.9846154 L23.3975202,15.2973455 L24.8694332,13.9681457 L24.1255061,13.9681457 L22.86083,15.129161 L22.6376518,15.129161 L22.6376518,12.6769231 L22,12.6769231 L22,16.9846154 L22.6376518,16.9846154 L22.6376518,15.5577601 L22.86083,15.5577601 L24.3858806,16.9846154 Z M27.8638204,15.059781 L25.8903202,15.059781 C25.9109312,14.6623226 25.9882223,14.4863053 26.1273463,14.3727457 C26.2716231,14.2591862 26.534413,14.2024064 26.9208686,14.2024064 C27.4567538,14.2024064 27.7092381,14.3329999 27.8019875,14.6055428 C27.8380567,14.7191023 27.8638204,14.8269839 27.8638204,15.059781 Z M28.430622,15.9569014 L27.8225985,15.9569014 C27.8019875,16.0534271 27.791682,16.2975801 27.7092381,16.3884277 C27.6164888,16.4906313 27.4309901,16.5360552 26.9363268,16.5360552 C26.4468163,16.5360552 26.1788738,16.4622414 26.0397497,16.3089361 C25.9366949,16.1953765 25.874862,15.9569014 25.874862,15.5878329 L25.874862,15.5026632 L28.4460802,15.5026632 C28.451233,15.3493578 28.4615385,15.309612 28.4615385,15.1846965 C28.4615385,14.6623226 28.3945528,14.3727457 28.1884431,14.1513046 C27.9565697,13.8844396 27.5082812,13.7538462 26.8899522,13.7538462 C26.1015826,13.7538462 25.6172249,13.9525754 25.4162679,14.3897796 C25.2977549,14.6396107 25.2307692,14.9916453 25.2307692,15.4288495 C25.2307692,16.1158848 25.395657,16.5474111 25.7615017,16.7631743 C25.9882223,16.8994457 26.3798307,16.9789374 26.8796467,16.9846154 C27.2970188,16.9846154 27.631947,16.9619035 27.9977917,16.8426659 C28.3533309,16.7177504 28.4409275,16.4963093 28.4409275,16.3089361 C28.4409275,16.2635122 28.4409275,16.1102068 28.430622,15.9569014 Z" id="Shape"></path>
            <path d="M10.9423638,24.5991845 C10.9423638,24.0795264 10.5808503,24.022364 9.9180755,24.022364 L8.18719262,24.022364 L8.18719262,25.3319025 L9.83591334,25.3319025 C10.5808503,25.3319025 10.9423638,25.2071845 10.9423638,24.5991845 Z M11.8023278,26.5219196 C11.8023278,27.2754238 11.2710124,27.6859538 10.3179314,27.6859538 L7.4860755,27.6859538 L7.4860755,23.5598683 L10.2083818,23.5598683 C11.265535,23.5598683 11.6380034,23.9288256 11.6380034,24.6563469 C11.6380034,25.0980563 11.3312647,25.3786717 10.761607,25.5189794 L10.761607,25.5293726 C11.495589,25.6385008 11.8023278,26.0126546 11.8023278,26.5219196 Z M11.1012106,26.5686888 C11.1012106,26.0438341 10.8766341,25.7995948 10.0714449,25.7995948 L8.18719262,25.7995948 L8.18719262,27.2130649 L9.98380523,27.2130649 C10.6630124,27.2130649 11.1012106,27.1559025 11.1012106,26.5686888 Z M15.1588457,26.6258512 L15.1588457,26.2776803 L14.0852601,26.2776803 C13.5868097,26.2776803 13.4279628,26.2880734 13.3074583,26.3452358 C13.1759988,26.4023982 13.1102691,26.5427059 13.1102691,26.7921418 C13.1102691,26.9896119 13.1486115,27.0831503 13.2472061,27.1403127 C13.3896205,27.2286546 13.6306295,27.2650307 14.0359628,27.2650307 C14.4412961,27.2650307 14.6823052,27.2442444 14.852107,27.1818854 C15.1424133,27.0831503 15.1588457,26.8648939 15.1588457,26.6258512 Z M15.8216205,27.6443811 L15.2683952,27.6443811 L15.208143,27.4053384 C14.9726115,27.5976119 14.589188,27.6859538 13.992143,27.6859538 C12.8528277,27.6859538 12.409152,27.4573042 12.409152,26.7713555 C12.409152,26.5375093 12.4639268,26.355629 12.5734763,26.2153213 C12.8254403,25.8879367 13.2855484,25.8775435 13.6854043,25.8775435 L15.1588457,25.8775435 L15.1588457,25.5969281 C15.1588457,25.4774067 15.1698006,25.3215093 15.0328637,25.2487572 C14.8849718,25.1708085 14.5344133,25.1552187 14.0304853,25.1552187 C13.5922871,25.1552187 13.4443952,25.1863982 13.3567556,25.2643469 C13.2855484,25.3370991 13.2745934,25.5137828 13.258161,25.586535 L12.6172961,25.586535 C12.6118187,25.4566204 12.6008637,25.3578854 12.6008637,25.2851332 C12.6008637,25.1708085 12.6227736,25.07727 12.7213682,24.9993213 C13.0116745,24.7654751 13.8004313,24.7342956 14.0907376,24.7342956 C14.474161,24.7342956 15.2519628,24.7394922 15.5696565,24.9733384 C15.7065934,25.0720734 15.7613682,25.1863982 15.7942331,25.3474922 C15.8216205,25.5033897 15.8216205,25.7164495 15.8216205,26.0230478 L15.8216205,27.6443811 Z M19.5019757,27.6859538 L19.5019757,26.1061931 C19.5019757,25.560552 19.4745883,25.4462273 19.3376514,25.3474922 C19.2061919,25.2539538 18.943273,25.1967914 18.5434172,25.1967914 C18.1928586,25.1967914 17.8313451,25.238364 17.4917415,25.3267059 L17.4917415,27.6859538 L16.8399217,27.6859538 L16.8399217,24.7966546 L17.4260117,24.7966546 L17.475309,25.0045179 C17.601291,24.9369623 17.6998856,24.8849965 17.8423,24.8486204 C18.0559217,24.7862614 18.3297955,24.755082 18.6967865,24.755082 C19.1130748,24.755082 19.436246,24.8174409 19.6827325,24.9213726 C19.9237415,25.0201076 20.0552009,25.2071845 20.1099757,25.4254409 C20.1428406,25.5761418 20.1537955,25.7060563 20.1537955,26.0334409 L20.1537955,27.6859538 L19.5019757,27.6859538 Z M23.7300778,27.6859538 L22.1580418,26.3192529 L21.9225103,26.3192529 L21.9225103,27.6859538 L21.2706905,27.6859538 L21.2706905,23.5598683 L21.9225103,23.5598683 L21.9225103,25.908723 L22.1580418,25.908723 L23.4616815,24.7966546 L24.2230508,24.7966546 L22.7057896,26.069817 L24.5955193,27.6859538 L23.7300778,27.6859538 Z" id="Shape" fill-rule="nonzero"></path>
        </g>
    </g>
</svg>

<svg width="32" height="32" xmlns="http://www.w3.org/2000/svg"><g fill="#03426A" fill-rule="evenodd"><path d="M0 20.19V0h32v20.19H0zm7.356-5.028c0 .89-.446 1.329-1.444 1.329H4.341V13.16h1.52c1.207 0 1.495.63 1.495 1.318v.684zM8 15.135v-.57c0-1.818-1.338-1.888-2.235-1.888H3.692v4.308h2.25c1.77 0 2.058-1.026 2.058-1.85zm3.685.69c0 .26-.02.5-.295.608-.161.068-.39.09-.773.09-.384 0-.612-.039-.747-.136-.093-.062-.13-.165-.13-.38 0-.274.063-.427.182-.49.12-.062.27-.074.737-.074h1.026v.381zm.623 1.114v-1.775c0-.335 0-.568-.026-.739-.031-.176-.083-.301-.213-.41-.3-.255-1.037-.261-1.4-.261-.275 0-1.022.034-1.296.29-.094.085-.115.188-.115.313 0 .08.01.187.016.33h.607c.01-.08.026-.273.093-.353.083-.085.223-.12.638-.12.477 0 .809.018.949.103.13.08.124.25.124.381v.307h-1.4c-.378 0-.814.012-1.053.37-.108.153-.155.353-.155.609 0 .75.42 1 1.499 1 .56 0 .928-.096 1.15-.307l.058.262h.524zm3.672.046h.635v-1.822c0-.36-.016-.504-.048-.67-.048-.24-.176-.447-.41-.556-.241-.114-.556-.183-.962-.183-.358 0-.625.034-.838.103-.134.04-.23.097-.358.172l-.043-.23h-.571v3.186h.635v-2.601a3.667 3.667 0 0 1 1.025-.143c.39 0 .647.063.775.166.133.109.16.235.16.836v1.742zm4.578-.228c.256-.141.365-.374.365-.743 0-.46-.125-.687-.443-.807-.177-.068-.38-.096-.693-.102-.292-.005-1.147.006-1.309-.102-.067-.051-.12-.165-.12-.318 0-.227.073-.34.235-.403.172-.068.386-.085.761-.085s.641.034.73.108c.052.04.062.073.094.244l.026.142h.604c.01-.108.01-.176.01-.244 0-.25-.046-.392-.192-.483-.13-.08-.313-.125-.553-.16a7.073 7.073 0 0 0-.834-.05c-1.105 0-1.506.25-1.506.965 0 .79.657.818 1.277.852.14.005.26.017.365.017.219.006.354.006.396.011.078.006.151.006.224.023.24.04.287.142.287.392 0 .215-.063.329-.193.391-.182.091-.459.137-.855.137-.318 0-.568-.023-.724-.074-.162-.057-.152-.136-.172-.284-.006-.034-.006-.085-.026-.244h-.6c-.015.17-.026.295-.015.437.015.273.161.42.453.494.271.08.62.114 1.043.114.61 0 1.079-.069 1.365-.228zm3.828.228h.845l-1.833-1.688 1.471-1.329h-.743L22.86 15.13h-.223v-2.452H22v4.308h.638v-1.427h.223l1.525 1.427zm3.478-1.925H25.89c.02-.398.098-.574.237-.687.145-.114.407-.17.794-.17.536 0 .788.13.881.403.036.113.062.221.062.454zm.567.897h-.608c-.021.096-.031.34-.114.431-.093.103-.278.148-.773.148-.49 0-.757-.074-.896-.227-.103-.114-.165-.352-.165-.721v-.085h2.571c.005-.154.016-.193.016-.318 0-.523-.067-.812-.274-1.034-.231-.267-.68-.397-1.298-.397-.788 0-1.273.199-1.474.636-.118.25-.185.602-.185 1.039 0 .687.165 1.118.53 1.334.227.136.619.216 1.119.222.417 0 .752-.023 1.118-.142.355-.125.443-.347.443-.534 0-.045 0-.199-.01-.352z"/><path d="M10.942 24.6c0-.52-.361-.578-1.024-.578h-1.73v1.31h1.648c.745 0 1.106-.125 1.106-.733zm.86 1.922c0 .753-.531 1.164-1.484 1.164H7.486V23.56h2.722c1.058 0 1.43.369 1.43 1.096 0 .442-.307.723-.876.863v.01c.734.11 1.04.484 1.04.993zm-.7.047c0-.525-.225-.77-1.03-.77H8.186v1.414h1.797c.679 0 1.117-.057 1.117-.644zm4.057.057v-.348h-1.074c-.498 0-.657.01-.778.067-.131.057-.197.198-.197.447 0 .198.039.291.137.348.143.089.384.125.789.125s.646-.02.816-.083c.29-.099.307-.317.307-.556zm.663 1.018h-.554l-.06-.239c-.235.193-.619.281-1.216.281-1.14 0-1.583-.229-1.583-.915 0-.233.055-.415.164-.556.252-.327.713-.337 1.112-.337h1.474v-.281c0-.12.01-.275-.126-.348-.148-.078-.499-.094-1.003-.094-.438 0-.586.031-.673.11-.071.072-.082.249-.099.322h-.64c-.006-.13-.017-.23-.017-.302 0-.114.022-.208.12-.286.29-.234 1.08-.265 1.37-.265.383 0 1.161.005 1.479.24.137.098.191.212.224.373.028.156.028.37.028.676v1.621zm3.68.042v-1.58c0-.545-.027-.66-.164-.759-.132-.093-.395-.15-.795-.15-.35 0-.712.041-1.051.13v2.359h-.652v-2.89h.586l.05.209c.125-.068.224-.12.366-.156.214-.063.488-.094.855-.094.416 0 .74.062.986.166a.704.704 0 0 1 .427.504c.033.151.044.281.044.608v1.653h-.652zm4.228 0l-1.572-1.367h-.235v1.367h-.652V23.56h.652v2.349h.235l1.304-1.112h.761l-1.517 1.273 1.89 1.616h-.866z" fill-rule="nonzero"/></g></svg>
